!!!OTL: EINE HAND VOLL ERDE
!!!ARE: Europa, Mitteleuropa, Deutschland
!!!SCT: F1067
!!!YEM: Copyright 1995, estate of Helmut Schaffrath.
**kern
*ICvox
*Ivox
*M2/4
*k[b-]
*F:
=1
{8a
8a
8b-
8b-
=2
4cc
8a
8r}
=3
{8b-
8b-
8a
8a
=4
4a
8g
8r}
=5
{8a
8a
8b-
8b-
=6
4cc
8dd
8r}
=7
{8cc
8cc
8e
8e
=8
4.f
8r}
=9
{8a
8a
8b-
8b-
=10
4cc
8a
8r}
=11
{8b-
8b-
8a
8a
=12
4a
8g
8r}
=13
{8a
8a
8b-
8b-
=14
8cc
4ff
8dd}
=15
{8cc
8cc
8e
8e
=16
4f
4r}
==
!!!AGN: Trauer -, Bregraebnis -, Trost - Lied
!!!ONB: ESAC (Essen Associative Code) Database: FINK
!!!AMT: simple duple
!!!AIN: vox
!!!EED: Helmut Schaffrath
!!!EEV: 1.0
*-
